images/heart4.svg

<svg width="327" height="61" viewBox="0 0 327 61" fill="none" xmlns="http://www.w3.org/2000/svg">
<path d="M324.198 41.192C322.331 39.2484 319.61 37.7948 316.04 36.8378L310.68 35.4789C307.479 34.6263 305.88 33.1368 305.88 31.0038C305.88 29.6711 306.4 28.5801 307.44 27.7275C308.479 26.875 309.853 26.4503 311.56 26.4503C313.267 26.4503 314.601 26.8652 315.719 27.6883C316.841 28.5147 317.505 29.6449 317.72 31.0855H326.494C326.494 31.0855 326.396 24.902 321.281 21.5767C318.469 19.7475 315.242 18.859 311.243 18.859C309.003 18.859 306.975 19.166 305.164 19.7769C303.349 20.391 301.815 21.2435 300.563 22.3345C299.307 23.4255 298.349 24.7321 297.682 26.2511C297.015 27.77 296.682 29.4065 296.682 31.1671C296.682 33.8848 297.548 36.2139 299.281 38.1607C301.014 40.1075 303.882 41.6101 307.881 42.675L313.322 44.1122C316.148 44.8603 317.429 46.2747 317.563 48.3489C317.691 50.3447 316.033 52.9056 311.995 52.9056C309.915 52.9056 308.26 52.4679 307.034 51.5892C305.808 50.7105 305.115 49.4987 304.954 47.9536H296.119C296.119 47.9536 296.119 53.9509 301.073 57.5048C303.797 59.4582 307.433 60.5002 312.073 60.5002C317.034 60.5002 319.901 59.4615 322.88 57.2239C325.686 55.117 327 52.1086 327 48.4338C327 45.556 326.065 43.1454 324.201 41.2018L324.198 41.192Z" fill="#1F305E"/>
<path d="M81.362 45.2294C80.6688 47.2546 78.3864 51.8604 71.3625 51.8604C68.001 51.8604 65.3491 50.7922 63.4035 48.6527C61.4546 46.5164 60.4834 43.521 60.4834 39.6731C60.4834 35.8251 61.4546 32.9376 63.4035 30.6935C65.3491 28.4494 68.0043 27.3257 71.3625 27.3257C78.2556 27.3257 80.587 32.0687 81.2835 34.1984H90.2792C90.2792 34.1984 89.6971 26.3948 82.4542 21.8576C79.714 20.1427 76.1857 18.8525 71.2056 18.8525C68.1645 18.8525 65.4079 19.3588 62.9326 20.3714C60.4572 21.384 58.3318 22.7984 56.5595 24.608C54.7871 26.4209 53.4268 28.6029 52.472 31.1606C51.5205 33.7183 51.0431 36.5699 51.0431 39.7123C51.0431 42.8546 51.5303 45.6246 52.5113 48.1823C53.489 50.7399 54.8525 52.9252 56.5954 54.7349C58.3416 56.5478 60.4507 57.9589 62.9293 58.9715C65.4047 59.9841 68.1383 60.5851 71.1238 60.4904C88.7161 59.9384 90.2792 45.2261 90.2792 45.2261H81.3653L81.362 45.2294Z" fill="#1F305E"/>
<path d="M39.8075 24.4447L31.8583 30.0631L35.5599 40.6171L26.2634 34.0155L16.9244 40.6171L26.2438 14.0605L29.88 24.4316H39.8042L31.3612 1.1154H13.5923L19.5894 5.35204L0.00244141 59.4549H10.2439L15.0442 45.8663H37.2831L42.0017 59.4549H52.4818L39.8075 24.4447Z" fill="#1F305E"/>
<path d="M131.101 35.4789V59.4549H121.661V37.5041C121.661 35.5834 121.432 33.9665 120.981 32.6599C120.526 31.35 119.902 30.3113 119.1 29.5339C118.303 28.7597 117.367 28.1979 116.301 27.8516C115.232 27.5054 114.088 27.3323 112.861 27.3323C111.743 27.3323 110.608 27.5315 109.461 27.9333C108.313 28.3351 107.26 28.9492 106.302 29.7756C105.341 30.6053 104.569 31.6734 103.984 32.98C103.395 34.2899 103.104 35.8513 103.104 37.6674V59.4582H93.6636V0.0766602H103.104V24.0821C104.33 22.4979 105.968 21.2337 108.025 20.2832C110.079 19.3326 112.332 18.8557 114.784 18.8557C119.957 18.8557 123.969 20.2668 126.824 23.0924C129.675 25.9179 131.104 30.0435 131.104 35.4789H131.101Z" fill="#1F305E"/>
<path d="M135.238 6.39079C135.238 4.68568 135.823 3.26149 136.997 2.11495C138.171 0.968412 139.583 0.396776 141.238 0.396776C142.893 0.396776 144.289 0.984745 145.437 2.15415C146.584 3.32682 147.157 4.74121 147.157 6.39079C147.157 8.04037 146.584 9.45476 145.437 10.6274C144.289 11.8001 142.889 12.3848 141.238 12.3848C139.587 12.3848 138.171 11.8001 136.997 10.6274C135.823 9.45476 135.238 8.04363 135.238 6.39079ZM145.957 20.0545V59.4517H136.516V20.0545H145.957Z" fill="#1F305E"/>
<path d="M229.16 20.0545L212.68 59.4517H203.318L187.557 20.0545H197.798L208.197 48.2639L219.315 20.0545H229.16Z" fill="#1F305E"/>
<path d="M289.72 19.496C291.479 19.496 293.026 19.6821 294.36 20.0545V28.7663C292.918 28.3939 291.453 28.2077 289.959 28.2077C286.6 28.2077 283.997 29.2464 282.16 31.3239C280.322 33.4014 279.4 36.2792 279.4 39.954V59.4549H269.799V20.0545H278.599L279.158 24.6897C279.959 22.9846 281.319 21.6943 283.239 20.8156C285.158 19.9369 287.32 19.496 289.72 19.496Z" fill="#1F305E"/>
<path d="M189.159 39.7155C189.159 36.5732 188.692 33.7215 187.76 31.1639C186.824 28.6062 185.52 26.4242 183.839 24.6113C182.158 22.8016 180.118 21.3873 177.721 20.3746C175.321 19.362 172.682 18.8557 169.801 18.8557C166.92 18.8557 164.173 19.362 161.721 20.3746C159.265 21.3873 157.172 22.8114 155.439 24.6505C153.706 26.4895 152.359 28.7009 151.398 31.2847C150.436 33.8685 149.959 36.7071 149.959 39.7972C149.959 42.8873 150.44 45.7095 151.398 48.2672C152.359 50.8249 153.703 53.0102 155.439 54.8198C157.172 56.6327 159.252 58.0308 161.678 59.014C164.105 59.9972 166.76 60.4937 169.638 60.4937C173.797 60.4937 177.495 59.5889 180.638 57.6159C187.913 53.0461 188.731 46.3465 188.731 46.3465H179.719C178.813 48.2639 177.505 49.7437 175.798 50.7824C174.091 51.8212 172.038 52.3405 169.638 52.3405C166.757 52.3405 164.33 51.5827 162.359 50.0638C160.387 48.5449 159.239 46.2681 158.919 43.2303H189.159V39.7155ZM159.079 36.5176C159.452 33.3459 160.56 30.9287 162.398 29.266C164.239 27.6001 166.626 26.7672 169.559 26.7672C172.492 26.7672 174.84 27.5871 176.599 29.2236C178.358 30.8601 179.346 33.2936 179.559 36.5176H159.079Z" fill="#1F305E"/>
<path d="M266.287 39.7155C266.287 36.5732 265.82 33.7215 264.888 31.1639C263.953 28.6062 262.648 26.4242 260.967 24.6113C259.286 22.8016 257.246 21.3873 254.849 20.3746C252.449 19.362 249.81 18.8557 246.929 18.8557C244.048 18.8557 241.302 19.362 238.849 20.3746C236.394 21.3873 234.301 22.8114 232.568 24.6505C230.835 26.4895 229.487 28.7009 228.526 31.2847C227.565 33.8685 227.087 36.7071 227.087 39.7972C227.087 42.8873 227.568 45.7095 228.526 48.2672C229.484 50.8249 230.831 53.0102 232.568 54.8198C234.301 56.6327 236.38 58.0308 238.807 59.014C241.233 59.9972 243.888 60.4937 246.766 60.4937C250.925 60.4937 254.623 59.5889 257.766 57.6159C265.042 53.0461 265.859 46.3465 265.859 46.3465H256.847C255.941 48.2639 254.633 49.7437 252.926 50.7824C251.219 51.8212 249.166 52.3405 246.766 52.3405C243.885 52.3405 241.459 51.5827 239.487 50.0638C237.515 48.5449 236.367 46.2681 236.047 43.2303H266.287V39.7155ZM236.207 36.5176C236.58 33.3459 237.688 30.9287 239.526 29.266C241.367 27.6001 243.754 26.7672 246.687 26.7672C249.62 26.7672 251.968 27.5871 253.727 29.2236C255.487 30.8601 256.474 33.2936 256.687 36.5176H236.207Z" fill="#1F305E"/>
</svg>

<svg width="327" height="61" fill="none" xmlns="http://www.w3.org/2000/svg"><path d="M324.198 41.192c-1.867-1.944-4.588-3.397-8.158-4.354l-5.36-1.36c-3.201-.852-4.8-2.341-4.8-4.474 0-1.333.52-2.424 1.56-3.277 1.039-.852 2.413-1.277 4.12-1.277 1.707 0 3.041.415 4.159 1.238 1.122.827 1.786 1.957 2.001 3.398h8.774s-.098-6.184-5.213-9.51c-2.812-1.829-6.039-2.717-10.038-2.717-2.24 0-4.268.307-6.079.918-1.815.614-3.349 1.466-4.601 2.557a10.96 10.96 0 0 0-2.881 3.917c-.667 1.519-1 3.155-1 4.916 0 2.718.866 5.047 2.599 6.994s4.601 3.45 8.6 4.514l5.441 1.437c2.826.748 4.107 2.163 4.241 4.237.128 1.996-1.53 4.557-5.568 4.557-2.08 0-3.735-.438-4.961-1.317-1.226-.878-1.919-2.09-2.08-3.635h-8.835s0 5.997 4.954 9.55c2.724 1.954 6.36 2.996 11 2.996 4.961 0 7.828-1.038 10.807-3.276 2.806-2.107 4.12-5.115 4.12-8.79 0-2.878-.935-5.289-2.799-7.232l-.003-.01ZM81.362 45.23c-.693 2.025-2.976 6.63-10 6.63-3.361 0-6.013-1.068-7.958-3.207-1.95-2.137-2.92-5.132-2.92-8.98 0-3.848.97-6.735 2.92-8.98 1.945-2.244 4.6-3.367 7.958-3.367 6.894 0 9.225 4.743 9.922 6.872h8.995s-.582-7.803-7.825-12.34c-2.74-1.715-6.268-3.006-11.248-3.006-3.041 0-5.798.507-8.273 1.52-2.476 1.012-4.601 2.426-6.373 4.236-1.773 1.813-3.133 3.995-4.088 6.553-.952 2.557-1.429 5.409-1.429 8.551 0 3.143.487 5.913 1.468 8.47.978 2.558 2.341 4.743 4.084 6.553 1.747 1.813 3.856 3.224 6.334 4.236 2.476 1.013 5.21 1.614 8.195 1.52 17.592-.553 19.155-15.265 19.155-15.265h-8.914l-.003.003ZM39.807 24.445l-7.949 5.618 3.702 10.554-9.297-6.601-9.339 6.601 9.32-26.556 3.636 10.37h9.924L31.361 1.116H13.592l5.997 4.237L.002 59.455h10.242l4.8-13.589h22.24l4.718 13.589h10.48l-12.675-35.01ZM131.101 35.479v23.976h-9.44v-21.95c0-1.922-.229-3.538-.68-4.845-.455-1.31-1.079-2.349-1.881-3.126a7.13 7.13 0 0 0-2.799-1.682 11.089 11.089 0 0 0-3.44-.52c-1.118 0-2.253.2-3.4.601a9.724 9.724 0 0 0-3.159 1.843c-.961.83-1.733 1.897-2.318 3.204-.589 1.31-.88 2.871-.88 4.687v21.791h-9.44V.077h9.44v24.005c1.226-1.584 2.864-2.848 4.921-3.799 2.054-.95 4.307-1.427 6.759-1.427 5.173 0 9.185 1.41 12.04 4.236 2.851 2.826 4.28 6.952 4.28 12.387h-.003ZM135.238 6.39c0-1.704.585-3.129 1.759-4.275 1.174-1.147 2.586-1.718 4.241-1.718 1.655 0 3.051.588 4.199 1.757 1.147 1.173 1.72 2.587 1.72 4.237s-.573 3.064-1.72 4.236c-1.148 1.173-2.548 1.758-4.199 1.758-1.651 0-3.067-.585-4.241-1.758-1.174-1.172-1.759-2.583-1.759-4.236Zm10.719 13.665v39.397h-9.441V20.055h9.441ZM229.16 20.055l-16.48 39.397h-9.362l-15.761-39.397h10.241l10.399 28.209 11.118-28.21h9.845ZM289.72 19.496c1.759 0 3.306.186 4.64.559v8.711a17.519 17.519 0 0 0-4.401-.558c-3.359 0-5.962 1.038-7.799 3.116-1.838 2.077-2.76 4.955-2.76 8.63v19.5h-9.601v-39.4h8.8l.559 4.636c.801-1.705 2.161-2.996 4.081-3.874 1.919-.88 4.081-1.32 6.481-1.32ZM189.159 39.715c0-3.142-.467-5.994-1.399-8.551-.936-2.558-2.24-4.74-3.921-6.553-1.681-1.81-3.721-3.224-6.118-4.236-2.4-1.013-5.039-1.52-7.92-1.52-2.881 0-5.628.507-8.08 1.52-2.456 1.012-4.549 2.436-6.282 4.276-1.733 1.838-3.08 4.05-4.041 6.634-.962 2.583-1.439 5.422-1.439 8.512 0 3.09.481 5.913 1.439 8.47.961 2.558 2.305 4.743 4.041 6.553 1.733 1.813 3.813 3.21 6.239 4.194 2.427.983 5.082 1.48 7.96 1.48 4.159 0 7.857-.905 11-2.878 7.275-4.57 8.093-11.27 8.093-11.27h-9.012c-.906 1.918-2.214 3.398-3.921 4.436-1.707 1.04-3.76 1.559-6.16 1.559-2.881 0-5.308-.758-7.279-2.277-1.972-1.52-3.12-3.796-3.44-6.834h30.24v-3.514Zm-30.08-3.197c.373-3.172 1.481-5.59 3.319-7.252 1.841-1.666 4.228-2.499 7.161-2.499s5.281.82 7.04 2.457c1.759 1.636 2.747 4.07 2.96 7.294h-20.48ZM266.287 39.715c0-3.142-.467-5.994-1.399-8.551-.935-2.558-2.24-4.74-3.921-6.553-1.681-1.81-3.721-3.224-6.118-4.236-2.4-1.013-5.039-1.52-7.92-1.52-2.881 0-5.627.507-8.08 1.52-2.455 1.012-4.548 2.436-6.281 4.276-1.733 1.838-3.081 4.05-4.042 6.634-.961 2.583-1.439 5.422-1.439 8.512 0 3.09.481 5.913 1.439 8.47.958 2.558 2.305 4.743 4.042 6.553 1.733 1.813 3.812 3.21 6.239 4.194 2.426.983 5.081 1.48 7.959 1.48 4.159 0 7.857-.905 11-2.878 7.276-4.57 8.093-11.27 8.093-11.27h-9.012c-.906 1.918-2.214 3.398-3.921 4.436-1.707 1.04-3.76 1.559-6.16 1.559-2.881 0-5.307-.758-7.279-2.277-1.972-1.52-3.12-3.796-3.44-6.834h30.24v-3.514Zm-30.08-3.197c.373-3.172 1.481-5.59 3.319-7.252 1.841-1.666 4.228-2.499 7.161-2.499s5.281.82 7.04 2.457c1.76 1.636 2.747 4.07 2.96 7.294h-20.48Z" fill="#1F305E"/></svg>
